image/icon/Shipwreck.svg

<!--version="1.0" encoding="UTF-8"--><svg version="1.1" id="Layer_1" xmlns="http://www.w3.org/2000/svg" width="32" height="40" xml:space="preserve"><g id="PathID_90" transform="matrix(1, 0, 0, 1, 15.65, 19.6)"><path style="fill: rgb(0, 0, 0); fill-opacity: 1;" d="M.75-13.1v-4.5H-.9v4.5h-2.65q-2.05.05-3.65 2.5-1.6 2.4-1.6 5.5 0 4.35 1.6 7.3Q-5.7 4.95-3.55 5H-.9v4.5l-6.2-.15q-2.05-.05-3-3.05-.45-1.4-.5-2.65V2.8l.1-.85q.5-2.2.25-3.5l-.35-.95-.4-.6q-.7-.85-1.4.2-.65.95-.3 1.55l.5.4.5-.45q.45-.2.45 1.15 0 .5-1.2 3.2t-1.2 6.65q0 4.35 3.05 6.5l.25.15q2.4 1.5 6.25 1.5h8.2q3.85 0 6.3-1.5 3.25-2.1 3.25-6.65 0-3.95-1.2-6.65t-1.2-3.2q0-1.35.5-1.15l.45.45.5-.4q.35-.6-.3-1.55-.7-1.05-1.4-.2-.5.55-.75 1.55-.25 1.3.25 3.5.4 1.85-.4 4.35-.95 3-3 3.05l-6.35.2V5H7.1V3.9q-1.15-1.05-2-4-.8-2.75-.8-5 0-2.05.8-3.95.75-1.85 2-2.95v-1.1H.75m2-2H9.1v4l-.65.6q-.9.75-1.5 2.1-.65 1.55-.65 3.3 0 2.05.75 4.5.7 2.4 1.4 3l.1.15V2.4q-.6-2.7-.25-4.35.25-1.25 1-2.2 1-1.35 2.35-1.35 1.45 0 2.45 1.45 1.1 1.7.55 3.2-.25.8-1.1 1.45l.2.45L15 4.1q.65 2.35.65 5.5 0 4.75-3.05 7.45-3.05 2.7-8.5 2.7h-8.2q-3.85 0-6.5-1.35l-2-1.35q-3.05-2.7-3.05-7.45 0-3.15.65-5.5l1.25-3.05.2-.45q-.75-.6-1.1-1.45-.55-1.5.6-3.2.95-1.45 2.4-1.45l.85.15.2-2q.45-2.65 2-4.75l1.6-1.7q1.55-1.25 3.4-1.3h.7v-4.5h5.65v4.5"/><path style="fill: rgb(255, 255, 255); fill-opacity: 1;" d="M7.1-13.1v1.1q-1.25 1.1-2 2.95-.8 1.9-.8 3.95 0 2.25.8 5 .85 2.95 2 4V5H.75v4.55l6.35-.2q2.05-.05 3-3.05.8-2.5.4-4.35-.5-2.2-.25-3.5.25-1 .75-1.55.7-.85 1.4.2.65.95.3 1.55l-.5.4-.45-.45q-.5-.2-.5 1.15 0 .5 1.2 3.2t1.2 6.65q0 4.55-3.25 6.65-2.45 1.5-6.3 1.5h-8.2q-3.85 0-6.25-1.5l-.25-.15q-3.05-2.15-3.05-6.5 0-3.95 1.2-6.65t1.2-3.2q0-1.35-.45-1.15l-.5.45-.5-.4q-.35-.6.3-1.55.7-1.05 1.4-.2l.4.6.35.95q.25 1.3-.25 3.5l-.1.85v.85q.05 1.25.5 2.65.95 3 3 3.05l6.2.15V5h-2.65Q-5.7 4.95-7.2 2.2-8.8-.75-8.8-5.1q0-3.1 1.6-5.5 1.6-2.45 3.65-2.5H-.9v-4.5H.75v4.5H7.1"/></g></svg>

<?xml version="1.0" encoding="UTF-8"?>
<svg version="1.1" id="Layer_1" xmlns="http://www.w3.org/2000/svg" xmlns:xlink="http://www.w3.org/1999/xlink" width="32px" height="40px" xml:space="preserve">
<g id="PathID_90" transform="matrix(1, 0, 0, 1, 15.65, 19.6)">
<path style="fill:#000000;fill-opacity:1" d="M0.75 -13.1L0.75 -17.6L-0.9 -17.6L-0.9 -13.1L-3.55 -13.1Q-5.6 -13.05 -7.2 -10.6Q-8.8 -8.2 -8.8 -5.1Q-8.8 -0.75 -7.2 2.2Q-5.7 4.95 -3.55 5L-0.9 5L-0.9 9.5L-7.1 9.35Q-9.15 9.3 -10.1 6.3Q-10.55 4.9 -10.6 3.65L-10.6 2.8L-10.5 1.95Q-10 -0.25 -10.25 -1.55L-10.6 -2.5L-11 -3.1Q-11.7 -3.95 -12.4 -2.9Q-13.05 -1.95 -12.7 -1.35L-12.2 -0.95L-11.7 -1.4Q-11.25 -1.6 -11.25 -0.25Q-11.25 0.25 -12.45 2.95Q-13.65 5.65 -13.65 9.6Q-13.65 13.95 -10.6 16.1L-10.35 16.25Q-7.95 17.75 -4.1 17.75L4.1 17.75Q7.95 17.75 10.4 16.25Q13.65 14.15 13.65 9.6Q13.65 5.65 12.45 2.95Q11.25 0.25 11.25 -0.25Q11.25 -1.6 11.75 -1.4L12.2 -0.95L12.7 -1.35Q13.05 -1.95 12.4 -2.9Q11.7 -3.95 11 -3.1Q10.5 -2.55 10.25 -1.55Q10 -0.25 10.5 1.95Q10.9 3.8 10.1 6.3Q9.15 9.3 7.1 9.35L0.75 9.55L0.75 5L7.1 5L7.1 3.9Q5.95 2.85 5.1 -0.1Q4.3 -2.85 4.3 -5.1Q4.3 -7.15 5.1 -9.05Q5.85 -10.9 7.1 -12L7.1 -13.1L0.75 -13.1M2.75 -15.1L9.1 -15.1L9.1 -11.1L8.45 -10.5Q7.55 -9.75 6.95 -8.4Q6.3 -6.85 6.3 -5.1Q6.3 -3.05 7.05 -0.6Q7.75 1.8 8.45 2.4L8.55 2.55L8.55 2.4Q7.95 -0.3 8.3 -1.95Q8.55 -3.2 9.3 -4.15Q10.3 -5.5 11.65 -5.5Q13.1 -5.5 14.1 -4.05Q15.2 -2.35 14.65 -0.85Q14.4 -0.05 13.55 0.6L13.75 1.05L15 4.1Q15.65 6.45 15.65 9.6Q15.65 14.35 12.6 17.05Q9.55 19.75 4.1 19.75L-4.1 19.75Q-7.95 19.75 -10.6 18.4L-12.6 17.05Q-15.65 14.35 -15.65 9.6Q-15.65 6.45 -15 4.1L-13.75 1.05L-13.55 0.6Q-14.3 0 -14.65 -0.85Q-15.2 -2.35 -14.05 -4.05Q-13.1 -5.5 -11.65 -5.5L-10.8 -5.35L-10.6 -7.35Q-10.15 -10 -8.6 -12.1L-7 -13.8Q-5.45 -15.05 -3.6 -15.1L-2.9 -15.1L-2.9 -19.6L2.75 -19.6L2.75 -15.1"/>
<path style="fill:#FFFFFF;fill-opacity:1" d="M7.1 -13.1L7.1 -12Q5.85 -10.9 5.1 -9.05Q4.3 -7.15 4.3 -5.1Q4.3 -2.85 5.1 -0.1Q5.95 2.85 7.1 3.9L7.1 5L0.75 5L0.75 9.55L7.1 9.35Q9.15 9.3 10.1 6.3Q10.9 3.8 10.5 1.95Q10 -0.25 10.25 -1.55Q10.5 -2.55 11 -3.1Q11.7 -3.95 12.4 -2.9Q13.05 -1.95 12.7 -1.35L12.2 -0.95L11.75 -1.4Q11.25 -1.6 11.25 -0.25Q11.25 0.25 12.45 2.95Q13.65 5.65 13.65 9.6Q13.65 14.15 10.4 16.25Q7.95 17.75 4.1 17.75L-4.1 17.75Q-7.95 17.75 -10.35 16.25L-10.6 16.1Q-13.65 13.95 -13.65 9.6Q-13.65 5.65 -12.45 2.95Q-11.25 0.25 -11.25 -0.25Q-11.25 -1.6 -11.7 -1.4L-12.2 -0.95L-12.7 -1.35Q-13.05 -1.95 -12.4 -2.9Q-11.7 -3.95 -11 -3.1L-10.6 -2.5L-10.25 -1.55Q-10 -0.25 -10.5 1.95L-10.6 2.8L-10.6 3.65Q-10.55 4.9 -10.1 6.3Q-9.15 9.3 -7.1 9.35L-0.9 9.5L-0.9 5L-3.55 5Q-5.7 4.95 -7.2 2.2Q-8.8 -0.75 -8.8 -5.1Q-8.8 -8.2 -7.2 -10.6Q-5.6 -13.05 -3.55 -13.1L-0.9 -13.1L-0.9 -17.6L0.75 -17.6L0.75 -13.1L7.1 -13.1"/>
</g>
</svg>
